X: 350
T: THE MAID OF BANBRIDGE
T: An cailin ua Droichiod-na-bhanna
B: O'Neill's 350
M: 3/4
L: 1/8
Z: 1999 by John Chambers <jc@trillian.mit.edu>
N: "Moderate"
N: "Collected by J.O'Neill"
K:G
GE \
| D2 D2 EF | G2 G2 AB | c2 c2 BA | B4 GA \
| B2 A2 AG | E2 D2 GD | E2 D2 D2 | D4 ||
|| Bc \
| d2 d2 e>d | B2 d2 B2 | A2 G2 A2 | B4 GA \
| B2 D2 E2 | G3 ABG | A2 G2 G2 | G4 ||
